X:162
T: SO OFT ICH MEINE TABACKSPFEIFE
N: B0649A
O: Europa, Mitteleuropa, Deutschland, Schlesien
R: Moral -, Lob - Lied auf den Tabak
M: 4/4
L: 1/16
K: F
C2F2A2 | c4c4f6A2 | c2B2B4z2
B2B2B2 | A4c4d3BG2A2 | F4z6
C2F2A2 | c4c4f6A2 | c2B2B4z2
B2B2B2 | A4c4d3BG2A2 | F12z2
z2 | c2c2c2c2B2d2d2
c2 | e2e2e2e2c2f2f2
A2 | c2c2c2c2d3BG2A2 | F4z6

@@@ Tune index: 2380
